img/icons/Annotation.svg

<svg width="24" height="24" viewBox="0 0 24 24" fill="none" xmlns="http://www.w3.org/2000/svg">
<path d="M7 8H17M7 12H11M12 20L8 16H5C3.89543 16 3 15.1046 3 14V6C3 4.89543 3.89543 4 5 4H19C20.1046 4 21 4.89543 21 6V14C21 15.1046 20.1046 16 19 16H16L12 20Z" stroke="#0F67FE" stroke-width="2" stroke-linecap="round" stroke-linejoin="round"/>
</svg>

<svg width="24" height="24" fill="none" xmlns="http://www.w3.org/2000/svg"><path d="M7 8h10M7 12h4m1 8-4-4H5a2 2 0 0 1-2-2V6a2 2 0 0 1 2-2h14a2 2 0 0 1 2 2v8a2 2 0 0 1-2 2h-3l-4 4Z" stroke="#0F67FE" stroke-width="2" stroke-linecap="round" stroke-linejoin="round"/></svg>
